icons/lines/key.svg

<svg xmlns="http://www.w3.org/2000/svg" width="24" height="24" viewBox="0 0 24 24" fill="none" stroke="currentColor" stroke-width="2" stroke-linecap="round" stroke-linejoin="round" >
  <path d="M19.7901 14.9299C17.7301 16.9799 14.7801 17.6099 12.1901 16.7999L7.48015 21.4999C7.14015 21.8499 6.47015 22.0599 5.99015 21.9899L3.81015 21.6899C3.09015 21.5899 2.42015 20.9099 2.31015 20.1899L2.01015 18.0099C1.94015 17.5299 2.17015 16.8599 2.50015 16.5199L7.20015 11.8199C6.40015 9.21995 7.02015 6.26995 9.08015 4.21995C12.0301 1.26995 16.8201 1.26995 19.7801 4.21995C22.7401 7.16995 22.7401 11.9799 19.7901 14.9299Z" stroke-miterlimit="10"/>
  <path d="M6.89014 17.49L9.19014 19.79" stroke-miterlimit="10"/>
  <path d="M14.5 11C15.3284 11 16 10.3284 16 9.5C16 8.67157 15.3284 8 14.5 8C13.6716 8 13 8.67157 13 9.5C13 10.3284 13.6716 11 14.5 11Z"/>
  </svg>

<svg xmlns="http://www.w3.org/2000/svg" width="24" height="24" viewBox="0 0 24 24" fill="none" stroke="currentColor" stroke-width="2" stroke-linecap="round" stroke-linejoin="round">
  <path d="M19.79 14.93a7.58 7.58 0 0 1-7.6 1.87l-4.71 4.7c-.34.35-1.01.56-1.49.49l-2.18-.3c-.72-.1-1.39-.78-1.5-1.5l-.3-2.18c-.07-.48.16-1.15.49-1.49l4.7-4.7c-.8-2.6-.18-5.55 1.88-7.6a7.575 7.575 0 0 1 10.71 10.71" />
  <path d="m6.89 17.49 2.3 2.3" />
  <circle cx="14.5" cy="9.5" r="1.5" />
</svg>
